assets/images/vector/icons/face_smile_icon.svg

<svg fill="none" height="59" viewBox="0 0 59 59" width="59" xmlns="http://www.w3.org/2000/svg"><path d="m29.1667 53.3333c13.3468 0 24.1666-10.8198 24.1666-24.1666 0-13.3469-10.8198-24.1667-24.1666-24.1667-13.3469 0-24.1667 10.8198-24.1667 24.1667 0 13.3468 10.8198 24.1666 24.1667 24.1666z" stroke="#111" stroke-linecap="round" stroke-linejoin="round" stroke-width="10"/><path d="m36.666 38.3601c-1.5733 2.4867-4.3467 4.14-7.5 4.14s-5.9267-1.6533-7.5-4.14" stroke="#111" stroke-linecap="round" stroke-linejoin="round" stroke-width="10"/><g fill="#111"><path d="m19.1673 32.4999c1.841 0 3.3334-1.4924 3.3334-3.3333 0-1.841-1.4924-3.3333-3.3334-3.3333-1.8409 0-3.3333 1.4923-3.3333 3.3333 0 1.8409 1.4924 3.3333 3.3333 3.3333z"/><path d="m39.1673 32.4999c1.841 0 3.3334-1.4924 3.3334-3.3333 0-1.841-1.4924-3.3333-3.3334-3.3333-1.8409 0-3.3333 1.4923-3.3333 3.3333 0 1.8409 1.4924 3.3333 3.3333 3.3333z"/></g></svg>

<svg width="59" height="59" viewBox="0 0 59 59" fill="none" xmlns="http://www.w3.org/2000/svg">
<path d="M29.1667 53.3333C42.5135 53.3333 53.3333 42.5135 53.3333 29.1667C53.3333 15.8198 42.5135 5 29.1667 5C15.8198 5 5 15.8198 5 29.1667C5 42.5135 15.8198 53.3333 29.1667 53.3333Z" stroke="#111111" stroke-width="10" stroke-linecap="round" stroke-linejoin="round"/>
<path d="M36.666 38.3601C35.0927 40.8468 32.3193 42.5001 29.166 42.5001C26.0127 42.5001 23.2393 40.8468 21.666 38.3601" stroke="#111111" stroke-width="10" stroke-linecap="round" stroke-linejoin="round"/>
<path d="M19.1673 32.4999C21.0083 32.4999 22.5007 31.0075 22.5007 29.1666C22.5007 27.3256 21.0083 25.8333 19.1673 25.8333C17.3264 25.8333 15.834 27.3256 15.834 29.1666C15.834 31.0075 17.3264 32.4999 19.1673 32.4999Z" fill="#111111"/>
<path d="M39.1673 32.4999C41.0083 32.4999 42.5007 31.0075 42.5007 29.1666C42.5007 27.3256 41.0083 25.8333 39.1673 25.8333C37.3264 25.8333 35.834 27.3256 35.834 29.1666C35.834 31.0075 37.3264 32.4999 39.1673 32.4999Z" fill="#111111"/>
</svg>
